X:779
T:Reel 779
M:4/4
K:Amin
L:1/8
A,B,|CA,B,G, A,G,^F,G,|G,G,B,G, G,2B,G,|G,A,A,B, CDB,G,|E,G,G,F, G,2A,B,|CA,A,G, E,D,D,2|E,A,A,B, CDED|CA,B,G, A,G,B,G,|E,A,A,^G, A,2A,2|B,A,A,B, CDE^F|GE^FD E2F2|G,A,B,C DCDF|EDCD C2CD|CB,CD EFGB|AG^F^G AEFA|GABG AGFE|^F>E (3EFG A2|
